X:1
T: Dooley's Fancy
C:
R:Reel
Q: 232
K:A
M:4/4
L:1/8
e|cA EA ce ae|dc BA GA Bd|cA ce ag af|ea gb af ed|
cA EA ce ae|dc BA GA Bd|cA ce a2 af|ed cB A2 fg|
|:a2 ge fe cA|dc BA GA fg|a2 ge fe ce|fa gb ae fg|
ag ag fe dc|dc BA GA Bd|((3cBA) eA fa gb|af ed ce ae:|
cA EA ce ae|dc BA GA Bd|cA ce ag af|ea gb af ed|
cA EA ce ae|dc BA GA Bd|cA ce a2 af|ed cB A3:|
